TileServer und Tiles/svg/9/97_17.svg

<?xml version='1.0' encoding='UTF-8' standalone='no'?>
<svg xmlns="http://www.w3.org/2000/svg" width="497pt" viewBox="0 0 497 279" xmlns:xlink="http://www.w3.org/1999/xlink" height="279pt">
 <defs style="stroke:none;" overflow="visible">
  <path id="glyph0-7" d="M 3.4375 -5.453125 C 4.070312 -5.453125 4.550781 -5.296875 4.875 -4.984375 C 5.207031 -4.679688 5.375 -4.179688 5.375 -3.484375 L 5.375 0 L 4.5 0 L 4.5 -3.4375 C 4.5 -4.289062 4.097656 -4.71875 3.296875 -4.71875 C 2.703125 -4.71875 2.289062 -4.550781 2.0625 -4.21875 C 1.84375 -3.882812 1.734375 -3.40625 1.734375 -2.78125 L 1.734375 0 L 0.84375 0 L 0.84375 -5.359375 L 1.5625 -5.359375 L 1.6875 -4.625 L 1.734375 -4.625 C 1.910156 -4.90625 2.148438 -5.113281 2.453125 -5.25 C 2.765625 -5.382812 3.09375 -5.453125 3.4375 -5.453125 Z M 3.4375 -5.453125 "/>
  <path id="glyph0-6" d="M 4.34375 -1.484375 C 4.34375 -0.960938 4.148438 -0.566406 3.765625 -0.296875 C 3.378906 -0.0351562 2.859375 0.09375 2.203125 0.09375 C 1.828125 0.09375 1.503906 0.0625 1.234375 0 C 0.960938 -0.0507812 0.722656 -0.128906 0.515625 -0.234375 L 0.515625 -1.046875 C 0.734375 -0.929688 0.992188 -0.828125 1.296875 -0.734375 C 1.597656 -0.648438 1.90625 -0.609375 2.21875 -0.609375 C 2.664062 -0.609375 2.988281 -0.679688 3.1875 -0.828125 C 3.382812 -0.972656 3.484375 -1.164062 3.484375 -1.40625 C 3.484375 -1.53125 3.445312 -1.644531 3.375 -1.75 C 3.300781 -1.863281 3.171875 -1.972656 2.984375 -2.078125 C 2.796875 -2.179688 2.523438 -2.300781 2.171875 -2.4375 C 1.828125 -2.570312 1.53125 -2.707031 1.28125 -2.84375 C 1.03125 -2.976562 0.835938 -3.132812 0.703125 -3.3125 C 0.578125 -3.5 0.515625 -3.742188 0.515625 -4.046875 C 0.515625 -4.492188 0.695312 -4.835938 1.0625 -5.078125 C 1.4375 -5.328125 1.921875 -5.453125 2.515625 -5.453125 C 2.847656 -5.453125 3.15625 -5.421875 3.4375 -5.359375 C 3.71875 -5.296875 3.984375 -5.207031 4.234375 -5.09375 L 3.9375 -4.40625 C 3.707031 -4.5 3.46875 -4.578125 3.21875 -4.640625 C 2.96875 -4.703125 2.710938 -4.734375 2.453125 -4.734375 C 2.097656 -4.734375 1.820312 -4.675781 1.625 -4.5625 C 1.4375 -4.445312 1.34375 -4.289062 1.34375 -4.09375 C 1.34375 -3.945312 1.382812 -3.820312 1.46875 -3.71875 C 1.5625 -3.613281 1.707031 -3.507812 1.90625 -3.40625 C 2.113281 -3.3125 2.390625 -3.195312 2.734375 -3.0625 C 3.066406 -2.9375 3.351562 -2.804688 3.59375 -2.671875 C 3.832031 -2.546875 4.015625 -2.382812 4.140625 -2.1875 C 4.273438 -2 4.34375 -1.765625 4.34375 -1.484375 Z M 4.34375 -1.484375 "/>
  <path id="glyph0-5" d="M 3.40625 -5.453125 C 4.0625 -5.453125 4.585938 -5.222656 4.984375 -4.765625 C 5.390625 -4.304688 5.59375 -3.613281 5.59375 -2.6875 C 5.59375 -1.769531 5.390625 -1.078125 4.984375 -0.609375 C 4.585938 -0.140625 4.054688 0.09375 3.390625 0.09375 C 2.972656 0.09375 2.628906 0.015625 2.359375 -0.140625 C 2.085938 -0.296875 1.878906 -0.476562 1.734375 -0.6875 L 1.671875 -0.6875 C 1.679688 -0.570312 1.691406 -0.425781 1.703125 -0.25 C 1.722656 -0.0703125 1.734375 0.078125 1.734375 0.203125 L 1.734375 2.40625 L 0.84375 2.40625 L 0.84375 -5.359375 L 1.5625 -5.359375 L 1.6875 -4.625 L 1.734375 -4.625 C 1.890625 -4.863281 2.097656 -5.0625 2.359375 -5.21875 C 2.617188 -5.375 2.96875 -5.453125 3.40625 -5.453125 Z M 3.234375 -4.71875 C 2.691406 -4.71875 2.304688 -4.5625 2.078125 -4.25 C 1.859375 -3.945312 1.742188 -3.484375 1.734375 -2.859375 L 1.734375 -2.6875 C 1.734375 -2.03125 1.835938 -1.519531 2.046875 -1.15625 C 2.265625 -0.800781 2.671875 -0.625 3.265625 -0.625 C 3.585938 -0.625 3.851562 -0.710938 4.0625 -0.890625 C 4.269531 -1.078125 4.425781 -1.320312 4.53125 -1.625 C 4.632812 -1.9375 4.6875 -2.296875 4.6875 -2.703125 C 4.6875 -3.316406 4.566406 -3.804688 4.328125 -4.171875 C 4.097656 -4.535156 3.734375 -4.71875 3.234375 -4.71875 Z M 3.234375 -4.71875 "/>
  <path id="glyph0-4" d="M 6.734375 -5.453125 C 7.335938 -5.453125 7.789062 -5.296875 8.09375 -4.984375 C 8.394531 -4.679688 8.546875 -4.179688 8.546875 -3.484375 L 8.546875 0 L 7.671875 0 L 7.671875 -3.453125 C 7.671875 -4.296875 7.304688 -4.71875 6.578125 -4.71875 C 6.054688 -4.71875 5.679688 -4.566406 5.453125 -4.265625 C 5.234375 -3.960938 5.125 -3.523438 5.125 -2.953125 L 5.125 0 L 4.265625 0 L 4.265625 -3.453125 C 4.265625 -4.296875 3.894531 -4.71875 3.15625 -4.71875 C 2.613281 -4.71875 2.238281 -4.550781 2.03125 -4.21875 C 1.832031 -3.882812 1.734375 -3.40625 1.734375 -2.78125 L 1.734375 0 L 0.84375 0 L 0.84375 -5.359375 L 1.5625 -5.359375 L 1.6875 -4.625 L 1.734375 -4.625 C 1.898438 -4.90625 2.125 -5.113281 2.40625 -5.25 C 2.695312 -5.382812 3 -5.453125 3.3125 -5.453125 C 4.15625 -5.453125 4.703125 -5.15625 4.953125 -4.5625 L 5.015625 -4.5625 C 5.191406 -4.863281 5.429688 -5.085938 5.734375 -5.234375 C 6.046875 -5.378906 6.378906 -5.453125 6.734375 -5.453125 Z M 6.734375 -5.453125 "/>
  <path id="glyph0-3" d="M 5.515625 -2.6875 C 5.515625 -1.800781 5.285156 -1.113281 4.828125 -0.625 C 4.378906 -0.144531 3.773438 0.09375 3.015625 0.09375 C 2.535156 0.09375 2.109375 -0.0078125 1.734375 -0.21875 C 1.367188 -0.4375 1.078125 -0.753906 0.859375 -1.171875 C 0.648438 -1.585938 0.546875 -2.09375 0.546875 -2.6875 C 0.546875 -3.570312 0.769531 -4.253906 1.21875 -4.734375 C 1.664062 -5.210938 2.273438 -5.453125 3.046875 -5.453125 C 3.523438 -5.453125 3.945312 -5.34375 4.3125 -5.125 C 4.6875 -4.914062 4.976562 -4.601562 5.1875 -4.1875 C 5.40625 -3.78125 5.515625 -3.28125 5.515625 -2.6875 Z M 1.453125 -2.6875 C 1.453125 -2.050781 1.578125 -1.546875 1.828125 -1.171875 C 2.078125 -0.804688 2.476562 -0.625 3.03125 -0.625 C 3.570312 -0.625 3.96875 -0.804688 4.21875 -1.171875 C 4.46875 -1.546875 4.59375 -2.050781 4.59375 -2.6875 C 4.59375 -3.320312 4.46875 -3.816406 4.21875 -4.171875 C 3.96875 -4.535156 3.566406 -4.71875 3.015625 -4.71875 C 2.472656 -4.71875 2.078125 -4.535156 1.828125 -4.171875 C 1.578125 -3.816406 1.453125 -3.320312 1.453125 -2.6875 Z M 1.453125 -2.6875 "/>
  <path id="glyph0-2" d="M 1.734375 -7.59375 L 1.734375 -5.375 C 1.734375 -5.101562 1.71875 -4.851562 1.6875 -4.625 L 1.734375 -4.625 C 1.910156 -4.894531 2.144531 -5.097656 2.4375 -5.234375 C 2.738281 -5.378906 3.0625 -5.453125 3.40625 -5.453125 C 4.0625 -5.453125 4.550781 -5.296875 4.875 -4.984375 C 5.207031 -4.671875 5.375 -4.171875 5.375 -3.484375 L 5.375 0 L 4.5 0 L 4.5 -3.4375 C 4.5 -4.289062 4.097656 -4.71875 3.296875 -4.71875 C 2.703125 -4.71875 2.289062 -4.546875 2.0625 -4.203125 C 1.84375 -3.867188 1.734375 -3.390625 1.734375 -2.765625 L 1.734375 0 L 0.84375 0 L 0.84375 -7.59375 Z M 1.734375 -7.59375 "/>
  <path id="glyph0-1" d="M 3.234375 0 L 2.328125 0 L 2.328125 -6.34375 L 0.09375 -6.34375 L 0.09375 -7.140625 L 5.453125 -7.140625 L 5.453125 -6.34375 L 3.234375 -6.34375 Z M 3.234375 0 "/>
  <path id="glyph0-0" d="M 0.9375 0 L 0.9375 -7.140625 L 5.046875 -7.140625 L 5.046875 0 Z M 1.453125 -0.515625 L 4.546875 -0.515625 L 4.546875 -6.625 L 1.453125 -6.625 Z M 1.453125 -0.515625 "/>
 </defs>
 <image width="497" xlink:href="svg/9/97_17.jpg" height="279"/>
 <g>
  <path d="M 69.519531 15.5625 L 68.613281 15.5625 L 68.613281 9.21875 L 66.378906 9.21875 L 66.378906 8.421875 L 71.738281 8.421875 L 71.738281 9.21875 L 69.519531 9.21875 Z M 69.519531 15.5625 " transform=" rotate(  340 91.1289 12.5639) " style="fill:none;stroke-width:3;stroke-linecap:butt;stroke-linejoin:round;stroke:rgb(100%,100%,100%);stroke-opacity:0.6;stroke-miterlimit:10;"/>
  <path d="M 73.578125 7.96875 L 73.578125 10.1875 C 73.578125 10.460938 73.5625 10.710938 73.53125 10.9375 L 73.578125 10.9375 C 73.753906 10.667969 73.988281 10.464844 74.28125 10.328125 C 74.582031 10.183594 74.90625 10.109375 75.25 10.109375 C 75.90625 10.109375 76.394531 10.265625 76.71875 10.578125 C 77.050781 10.890625 77.21875 11.390625 77.21875 12.078125 L 77.21875 15.5625 L 76.34375 15.5625 L 76.34375 12.125 C 76.34375 11.273438 75.941406 10.84375 75.140625 10.84375 C 74.546875 10.84375 74.132812 11.015625 73.90625 11.359375 C 73.6875 11.695312 73.578125 12.171875 73.578125 12.796875 L 73.578125 15.5625 L 72.6875 15.5625 L 72.6875 7.96875 Z M 73.578125 7.96875 " transform=" rotate(  340 91.1289 12.5639) " style="fill:none;stroke-width:3;stroke-linecap:butt;stroke-linejoin:round;stroke:rgb(100%,100%,100%);stroke-opacity:0.6;stroke-miterlimit:10;"/>
  <path d="M 83.539062 12.875 C 83.539062 13.761719 83.308594 14.449219 82.851562 14.9375 C 82.402344 15.417969 81.796875 15.65625 81.039062 15.65625 C 80.558594 15.65625 80.132812 15.554688 79.757812 15.34375 C 79.390625 15.125 79.101562 14.808594 78.882812 14.390625 C 78.671875 13.976562 78.570312 13.46875 78.570312 12.875 C 78.570312 11.992188 78.792969 11.308594 79.242188 10.828125 C 79.6875 10.351562 80.296875 10.109375 81.070312 10.109375 C 81.546875 10.109375 81.96875 10.21875 82.335938 10.4375 C 82.710938 10.648438 83 10.960938 83.210938 11.375 C 83.429688 11.78125 83.539062 12.28125 83.539062 12.875 Z M 79.476562 12.875 C 79.476562 13.511719 79.601562 14.015625 79.851562 14.390625 C 80.101562 14.757812 80.5 14.9375 81.054688 14.9375 C 81.59375 14.9375 81.992188 14.757812 82.242188 14.390625 C 82.492188 14.015625 82.617188 13.511719 82.617188 12.875 C 82.617188 12.242188 82.492188 11.746094 82.242188 11.390625 C 81.992188 11.027344 81.589844 10.84375 81.039062 10.84375 C 80.496094 10.84375 80.101562 11.027344 79.851562 11.390625 C 79.601562 11.746094 79.476562 12.242188 79.476562 12.875 Z M 79.476562 12.875 " transform=" rotate(  340 91.1289 12.5639) " style="fill:none;stroke-width:3;stroke-linecap:butt;stroke-linejoin:round;stroke:rgb(100%,100%,100%);stroke-opacity:0.6;stroke-miterlimit:10;"/>
  <path d="M 90.808594 10.109375 C 91.410156 10.109375 91.863281 10.265625 92.167969 10.578125 C 92.46875 10.882812 92.621094 11.382812 92.621094 12.078125 L 92.621094 15.5625 L 91.746094 15.5625 L 91.746094 12.109375 C 91.746094 11.265625 91.378906 10.84375 90.652344 10.84375 C 90.128906 10.84375 89.753906 10.996094 89.527344 11.296875 C 89.308594 11.601562 89.199219 12.039062 89.199219 12.609375 L 89.199219 15.5625 L 88.339844 15.5625 L 88.339844 12.109375 C 88.339844 11.265625 87.96875 10.84375 87.230469 10.84375 C 86.6875 10.84375 86.3125 11.011719 86.105469 11.34375 C 85.90625 11.679688 85.808594 12.15625 85.808594 12.78125 L 85.808594 15.5625 L 84.917969 15.5625 L 84.917969 10.203125 L 85.636719 10.203125 L 85.761719 10.9375 L 85.808594 10.9375 C 85.972656 10.65625 86.199219 10.449219 86.480469 10.3125 C 86.769531 10.179688 87.074219 10.109375 87.386719 10.109375 C 88.230469 10.109375 88.777344 10.40625 89.027344 11 L 89.089844 11 C 89.265625 10.699219 89.503906 10.476562 89.808594 10.328125 C 90.121094 10.183594 90.453125 10.109375 90.808594 10.109375 Z M 90.808594 10.109375 " transform=" rotate(  340 91.1289 12.5639) " style="fill:none;stroke-width:3;stroke-linecap:butt;stroke-linejoin:round;stroke:rgb(100%,100%,100%);stroke-opacity:0.6;stroke-miterlimit:10;"/>
  <path d="M 96.832031 10.109375 C 97.488281 10.109375 98.011719 10.339844 98.410156 10.796875 C 98.816406 11.257812 99.019531 11.949219 99.019531 12.875 C 99.019531 13.792969 98.816406 14.484375 98.410156 14.953125 C 98.011719 15.421875 97.480469 15.65625 96.816406 15.65625 C 96.398438 15.65625 96.054688 15.578125 95.785156 15.421875 C 95.511719 15.265625 95.304688 15.085938 95.160156 14.875 L 95.097656 14.875 C 95.105469 14.992188 95.117188 15.136719 95.128906 15.3125 C 95.148438 15.492188 95.160156 15.640625 95.160156 15.765625 L 95.160156 17.96875 L 94.269531 17.96875 L 94.269531 10.203125 L 94.988281 10.203125 L 95.113281 10.9375 L 95.160156 10.9375 C 95.316406 10.699219 95.523438 10.5 95.785156 10.34375 C 96.042969 10.1875 96.394531 10.109375 96.832031 10.109375 Z M 96.660156 10.84375 C 96.117188 10.84375 95.730469 11 95.503906 11.3125 C 95.285156 11.617188 95.167969 12.078125 95.160156 12.703125 L 95.160156 12.875 C 95.160156 13.53125 95.261719 14.042969 95.472656 14.40625 C 95.691406 14.761719 96.097656 14.9375 96.691406 14.9375 C 97.011719 14.9375 97.277344 14.851562 97.488281 14.671875 C 97.695312 14.484375 97.851562 14.242188 97.957031 13.9375 C 98.058594 13.625 98.113281 13.265625 98.113281 12.859375 C 98.113281 12.246094 97.992188 11.757812 97.753906 11.390625 C 97.523438 11.027344 97.160156 10.84375 96.660156 10.84375 Z M 96.660156 10.84375 " transform=" rotate(  340 91.1289 12.5639) " style="fill:none;stroke-width:3;stroke-linecap:butt;stroke-linejoin:round;stroke:rgb(100%,100%,100%);stroke-opacity:0.6;stroke-miterlimit:10;"/>
  <path d="M 103.917969 14.078125 C 103.917969 14.601562 103.722656 14.996094 103.339844 15.265625 C 102.953125 15.527344 102.433594 15.65625 101.777344 15.65625 C 101.402344 15.65625 101.078125 15.625 100.808594 15.5625 C 100.535156 15.511719 100.296875 15.433594 100.089844 15.328125 L 100.089844 14.515625 C 100.308594 14.632812 100.566406 14.734375 100.871094 14.828125 C 101.171875 14.914062 101.480469 14.953125 101.792969 14.953125 C 102.238281 14.953125 102.5625 14.882812 102.761719 14.734375 C 102.957031 14.589844 103.058594 14.398438 103.058594 14.15625 C 103.058594 14.03125 103.019531 13.917969 102.949219 13.8125 C 102.875 13.699219 102.746094 13.589844 102.558594 13.484375 C 102.371094 13.382812 102.097656 13.261719 101.746094 13.125 C 101.402344 12.992188 101.105469 12.855469 100.855469 12.71875 C 100.605469 12.585938 100.410156 12.429688 100.277344 12.25 C 100.152344 12.0625 100.089844 11.820312 100.089844 11.515625 C 100.089844 11.070312 100.269531 10.726562 100.636719 10.484375 C 101.011719 10.234375 101.496094 10.109375 102.089844 10.109375 C 102.421875 10.109375 102.730469 10.140625 103.011719 10.203125 C 103.292969 10.265625 103.558594 10.355469 103.808594 10.46875 L 103.511719 11.15625 C 103.28125 11.0625 103.042969 10.984375 102.792969 10.921875 C 102.542969 10.859375 102.285156 10.828125 102.027344 10.828125 C 101.671875 10.828125 101.394531 10.886719 101.199219 11 C 101.011719 11.117188 100.917969 11.273438 100.917969 11.46875 C 100.917969 11.617188 100.957031 11.742188 101.042969 11.84375 C 101.136719 11.949219 101.28125 12.054688 101.480469 12.15625 C 101.6875 12.25 101.964844 12.367188 102.308594 12.5 C 102.640625 12.625 102.925781 12.757812 103.167969 12.890625 C 103.40625 13.015625 103.589844 13.179688 103.714844 13.375 C 103.847656 13.5625 103.917969 13.796875 103.917969 14.078125 Z M 103.917969 14.078125 " transform=" rotate(  340 91.1289 12.5639) " style="fill:none;stroke-width:3;stroke-linecap:butt;stroke-linejoin:round;stroke:rgb(100%,100%,100%);stroke-opacity:0.6;stroke-miterlimit:10;"/>
  <path d="M 109.878906 12.875 C 109.878906 13.761719 109.648438 14.449219 109.191406 14.9375 C 108.742188 15.417969 108.136719 15.65625 107.378906 15.65625 C 106.898438 15.65625 106.472656 15.554688 106.097656 15.34375 C 105.730469 15.125 105.441406 14.808594 105.222656 14.390625 C 105.011719 13.976562 104.910156 13.46875 104.910156 12.875 C 104.910156 11.992188 105.132812 11.308594 105.582031 10.828125 C 106.027344 10.351562 106.636719 10.109375 107.410156 10.109375 C 107.886719 10.109375 108.308594 10.21875 108.675781 10.4375 C 109.050781 10.648438 109.339844 10.960938 109.550781 11.375 C 109.769531 11.78125 109.878906 12.28125 109.878906 12.875 Z M 105.816406 12.875 C 105.816406 13.511719 105.941406 14.015625 106.191406 14.390625 C 106.441406 14.757812 106.839844 14.9375 107.394531 14.9375 C 107.933594 14.9375 108.332031 14.757812 108.582031 14.390625 C 108.832031 14.015625 108.957031 13.511719 108.957031 12.875 C 108.957031 12.242188 108.832031 11.746094 108.582031 11.390625 C 108.332031 11.027344 107.929688 10.84375 107.378906 10.84375 C 106.835938 10.84375 106.441406 11.027344 106.191406 11.390625 C 105.941406 11.746094 105.816406 12.242188 105.816406 12.875 Z M 105.816406 12.875 " transform=" rotate(  340 91.1289 12.5639) " style="fill:none;stroke-width:3;stroke-linecap:butt;stroke-linejoin:round;stroke:rgb(100%,100%,100%);stroke-opacity:0.6;stroke-miterlimit:10;"/>
  <path d="M 113.851562 10.109375 C 114.484375 10.109375 114.964844 10.265625 115.289062 10.578125 C 115.621094 10.882812 115.789062 11.382812 115.789062 12.078125 L 115.789062 15.5625 L 114.914062 15.5625 L 114.914062 12.125 C 114.914062 11.273438 114.511719 10.84375 113.710938 10.84375 C 113.117188 10.84375 112.703125 11.011719 112.476562 11.34375 C 112.257812 11.679688 112.148438 12.15625 112.148438 12.78125 L 112.148438 15.5625 L 111.257812 15.5625 L 111.257812 10.203125 L 111.976562 10.203125 L 112.101562 10.9375 L 112.148438 10.9375 C 112.324219 10.65625 112.5625 10.449219 112.867188 10.3125 C 113.179688 10.179688 113.507812 10.109375 113.851562 10.109375 Z M 113.851562 10.109375 " transform=" rotate(  340 91.1289 12.5639) " style="fill:none;stroke-width:3;stroke-linecap:butt;stroke-linejoin:round;stroke:rgb(100%,100%,100%);stroke-opacity:0.6;stroke-miterlimit:10;"/>
  <g transform=" rotate(  340 91.1289 12.5639) " style="fill:rgb(13.333333%,13.333333%,13.333333%);fill-opacity:1;">
   <use xlink:href="#glyph0-1" y="15.563854" x="66.283914"/>
   <use xlink:href="#glyph0-2" y="15.563854" x="71.843914"/>
   <use xlink:href="#glyph0-3" y="15.563854" x="78.023914"/>
   <use xlink:href="#glyph0-4" y="15.563854" x="84.073914"/>
   <use xlink:href="#glyph0-5" y="15.563854" x="93.423914"/>
   <use xlink:href="#glyph0-6" y="15.563854" x="99.573914"/>
   <use xlink:href="#glyph0-3" y="15.563854" x="104.363914"/>
   <use xlink:href="#glyph0-7" y="15.563854" x="110.413914"/>
  </g>
 </g>
</svg>

<svg xmlns="http://www.w3.org/2000/svg" xmlns:xlink="http://www.w3.org/1999/xlink" viewBox="0 0 497 279"> <defs overflow="visible" style="stroke:none">  <path id="g" d="M3.4-5.5c.7 0 1.2.2 1.6.5.2.3.4.8.4 1.5V0h-.9v-3.4c0-.9-.4-1.3-1.2-1.3-.6 0-1 .1-1.2.5-.3.2-.4.8-.4 1.4V0H.8v-5.4h.8v.8h.2c.2-.4.3-.5.7-.7l1-.2Zm0 0"/>  <path id="f" d="M4.3-1.5c0 .5-.2 1-.5 1.2-.4.3-1 .4-1.6.4l-1-.1-.7-.2V-1l.8.3h1.8l.4-.7-.1-.4L3-2a7.5 7.5 0 0 0-.8-.4 7.5 7.5 0 0 1-1-.4l-.4-.5L.5-4c0-.5.2-.8.6-1 .3-.4.8-.6 1.4-.6l1 .2a4 4 0 0 1 .6.4l-.1.6-.8-.2-.7-.1-.9.1c-.2.2-.3.3-.3.6s0 .2.2.3l.4.3.8.3.9.4.4.5c.3.2.3.4.3.7Zm0 0"/>  <path id="e" d="M3.4-5.5c.7 0 1.2.3 1.6.7.4.5.6 1.2.6 2.1 0 1-.2 1.7-.6 2-.4.7-1 .9-1.6.9-.4-.2-.8-.2-1-.3l-.7-.6v3.1H.8v-7.8h.8v.8h.2c.2-.4.3-.5.6-.6.2-.2.6-.3 1-.3Zm-.2.8c-.5 0-.9.1-1.1.5-.2.2-.4.7-.4 1.2v.3c0 .7.1 1.2.3 1.5.3.4.7.6 1.3.6.3 0 .6-.1.7-.4l.5-.6.2-1.1c0-.6-.1-1.1-.4-1.5-.2-.3-.6-.5-1-.5Zm0 0"/>  <path id="d" d="M6.7-5.5c.6 0 1 .2 1.4.5.3.3.4.8.4 1.5V0h-.8v-3.5c0-.8-.4-1.2-1.1-1.2-.6 0-1 .1-1.1.4C5.2-4 5-3.5 5-3v3h-.7v-3.5c0-.8-.4-1.2-1.1-1.2-.6 0-1 .1-1.2.5-.2.2-.3.8-.3 1.4V0H.8v-5.4h.8v.8h.2l.6-.7 1-.2c.7 0 1.2.3 1.6 1 .2-.5.4-.7.7-.8.3-.1.7-.2 1-.2Zm0 0"/>  <path id="c" d="M5.5-2.7c0 .9-.2 1.7-.7 2-.4.7-1 .9-1.8.9-.5-.2-.9-.2-1.3-.4-.3-.2-.6-.6-.7-1C.6-1.6.5-2 .5-2.7c0-.9.3-1.6.7-2 .5-.5 1-.8 1.8-.8.5 0 1 .2 1.3.5.4 0 .7.4.9.9.2.2.3.7.3 1.3Zm-4 0c0 .7 0 1.2.3 1.5.3.4.7.6 1.2.6.6 0 1-.2 1.2-.6.3-.3.4-.8.4-1.5s-.1-1.1-.4-1.5c-.2-.3-.6-.5-1.2-.5-.5 0-1 .2-1.2.5-.2.4-.3.9-.3 1.5Zm0 0"/>  <path id="b" d="M1.7-7.6v3c.3-.4.4-.5.7-.6.3-.2.7-.3 1-.3.7 0 1.2.2 1.6.5.2.3.4.8.4 1.5V0h-.9v-3.4c0-.9-.4-1.3-1.2-1.3-.6 0-1 .2-1.2.5-.3.3-.4.8-.4 1.4V0H.8v-7.6Zm0 0"/>  <path id="a" d="M3.2 0h-.9v-6.3H.1v-.8h5.4v.8H3.2Zm0 0"/>  <path d="M1 0v-7.1h4V0Zm.4-.5h3.1v-6.1h-3Zm.1 0"/> </defs> <image xlink:href="svg/9/97_17.jpg" width="497" height="279"/> <path d="M69.5 15.6h-.9V9.2h-2.2v-.8h5.3v.8h-2.2ZM73.6 8v2.9l.7-.6 1-.2c.5 0 1 .2 1.4.5.4.3.5.8.5 1.4v3.6h-.9V12c0-.7-.3-1.2-1.2-1.2-.6 0-1 .2-1.1.6-.3.3-.4.8-.4 1.4v2.8h-1V8Zm9.9 4.9c0 .9-.2 1.5-.5 2-.6.5-1.2.8-2 .8-.4 0-.9-.1-1.2-.4-.4-.2-.8-.5-1-1l-.1-1.3c-.1-1.1.1-1.7.5-2.1.5-.6 1.1-.9 1.9-.9.4.1.9.2 1.2.4.4.2.7.6 1 1l.1 1.5Zm-4 0c0 .6.1 1.1.4 1.5.1.4.6.5 1.1.5.6.1 1-.1 1.2-.5.3-.4.4-.9.4-1.5 0-.7-.1-1.2-.4-1.5-.2-.4-.6-.6-1.2-.6-.5 0-.9.2-1 .6-.4.3-.5.8-.5 1.5Zm11.3-2.8c.6 0 1 .2 1.4.5.3.3.4.8.4 1.4v3.6h-.9V12c0-.7-.3-1.2-1-1.2s-1 .2-1.2.5c-.2.3-.3.7-.3 1.3v3h-.9V12c0-.7-.3-1.2-1-1.2s-1.1.2-1.3.5c0 .4-.2.9-.2 1.5v2.8H85v-5.4h.6l.2.7c.2-.2.4-.5.7-.6l.9-.2c.8 0 1.4.3 1.6.9l.9-.7.9-.2Zm6 0c.7 0 1.2.2 1.6.7.4.5.6 1.1.6 2 0 1.1-.2 1.8-.6 2.2-.4.4-1 .7-1.6.7-.4 0-.7-.1-1-.3-.3-.1-.5-.3-.6-.4H95v3h-.6v-7.8h.6v.7l.9-.6.9-.2Zm-.1.7c-.7 0-1 .2-1.2.5-.2.3-.3.8-.3 1.4v.2c0 .6 0 1.1.3 1.5.2.4.5.6 1.2.6.3 0 .6 0 .8-.3l.5-.8V13c.1-.8 0-1.2-.2-1.6-.3-.4-.6-.6-1.1-.6ZM104 14c0 .7-.4 1-.8 1.4-.2.1-.8.3-1.4.3l-1-.1c-.3 0-.5-.2-.7-.3v-.8l.8.3.9.2c.4 0 .8-.1 1-.3.2-.1.2-.3.2-.5s0-.3-.1-.4l-.3-.3a7.5 7.5 0 0 0-.9-.5 7.5 7.5 0 0 1-.7-.3l-.7-.4-.3-.9c0-.3.3-.7.6-.9.4-.3.9-.5 1.5-.5l.9.2a4 4 0 0 1 .7.3l-.2.7-.7-.3h-.8l-.8.1c-.2.1-.3.3-.3.5l.1.3.5.4.8.3.9.4.5.5.3.6Zm5.9-1.1c0 .9-.3 1.5-.7 2-.5.5-1 .8-1.8.8-.5 0-1-.1-1.4-.4-.3-.2-.6-.5-.8-1-.2-.3-.2-.7-.2-1.3 0-1.1.1-1.7.6-2.1.4-.6 1-.9 1.8-.9.6.1 1 .2 1.3.4.3.2.6.6.9 1 .2.4.3.9.3 1.5Zm-4 0c-.1.6-.1 1.1.2 1.5.3.4.7.5 1.3.5.5.1 1-.1 1.2-.5.2-.4.4-.9.4-1.5 0-.7-.2-1.2-.4-1.5-.3-.4-.7-.6-1.2-.6-.6 0-1 .2-1.2.6-.3.3-.4.8-.4 1.5Zm8-2.8c.6 0 1 .2 1.4.5.3.3.5.8.5 1.4v3.6h-.9V12c.1-.7-.4-1.2-1.2-1.2-.6 0-1 .2-1.2.5-.2.4-.5.9-.5 1.5v2.8h-.7v-5.4h.7v.7c.3-.2.6-.5 1-.6l.9-.2Zm0 0" style="fill:none;stroke-width:3;stroke-linecap:butt;stroke-linejoin:round;stroke:#fff;stroke-opacity:.6;stroke-miterlimit:10" transform=" rotate(  340 91.1289 12.5639) "/> <g style="fill:#222;fill-opacity:1" transform=" rotate(  340 91.1289 12.5639) ">  <use xlink:href="#a" x="66.3" y="15.6"/>  <use xlink:href="#b" x="71.8" y="15.6"/>  <use xlink:href="#c" x="78" y="15.6"/>  <use xlink:href="#d" x="84.1" y="15.6"/>  <use xlink:href="#e" x="93.4" y="15.6"/>  <use xlink:href="#f" x="99.6" y="15.6"/>  <use xlink:href="#c" x="104.4" y="15.6"/>  <use xlink:href="#g" x="110.4" y="15.6"/> </g></svg>
